icons/select-by-attributes-24.svg

<?xml version="1.0" encoding="UTF-8"?><svg id="icons" xmlns="http://www.w3.org/2000/svg" viewBox="0 0 24 24"><defs><style>.cls-1{fill:none;}.cls-1,.cls-2,.cls-3{stroke-width:0px;}.cls-3{fill:#6f6f6f;opacity:.3;}</style></defs><path class="cls-3" d="M3,12V2h6c.14478,6.60504,1.59271,6.24963,3.86621,8.37891,1.82208,1.70648,2.05151,4.22363,2.33008,6.39062.16071,1.24994.49701,1.8291,2.34473,5.23047h-4.54102v-9c0-.55273-.44775-1-1-1H3Z"/><path class="cls-2" d="M22,2v20h-3v-1h2v-11.9491c-1.42322.12671-3.44458.56134-5.25311,1.90979-.15363-.24933-.34906-.54297-.55811-.83789,2.01788-1.48798,4.26044-1.94812,5.81122-2.07483V3h-11v-1h12ZM4,3h1v-1h-2c0,.11108,0,2.10822,0,2h1v-1ZM13,22h1v-1h-1v1ZM4,6h-1v2h1v-2ZM4,11h-1v1h1v-1ZM8,3.02246c.0166.36133.03809.7002.06738,1.02344l.99609-.08984c-.10107-1.13727-.05066-1.37128-.06348-1.95605h-2v1h1v.02246ZM14.84082,14.21387c-.1377-.5625-.33301-1.15527-.59473-1.81055l-.08789-.20996-.91406.40625.07324.17383c.24512.61328.42578,1.16211.55273,1.67871l.9707-.23828ZM15.14746,16.30957l-.99609.0918c.01562.16504.03125.3291.05273.49707.07812.59277.20898,1.11133.41309,1.63086l.93164-.36523c-.17383-.44238-.28613-.88574-.35254-1.39453-.01953-.1543-.03516-.30664-.04883-.45996ZM9.16895,8.17676l.86914-.49414c-.2832-.49805-.50195-1.07812-.66895-1.77344l-.97266.23242c.18945.78906.44238,1.45508.77246,2.03516ZM11.24512,9.08691l-.63867.76953c.22168.18359.44629.35254.6709.52051.30859.23145.61621.46094.90723.73242l.68164-.73047c-.32324-.30273-.66211-.55664-.98926-.80176-.21094-.1582-.42383-.31738-.63184-.49023ZM16.4502,19.9707l-.88867.45703c.13477.2627.27441.55078.41699.87598l.3053.69629h1.2572l-.54102-1s-.40527-.74902-.5498-1.0293ZM0,13h12v11H0v-11ZM1,23h10v-9H1v9ZM2,22h1v-1h-1v1ZM2,16h1v-1h-1v1ZM2,19h1v-1h-1v1ZM4,21v1h6v-1h-6ZM4,19h6v-1h-6v1ZM4,16h6v-1h-6v1Z"/><rect class="cls-1" width="24" height="24"/></svg>

<svg xmlns="http://www.w3.org/2000/svg" viewBox="0 0 24 24"><path d="M3 12V2h6c.145 6.605 1.593 6.25 3.866 8.379 1.822 1.706 2.052 4.224 2.33 6.39.161 1.25.497 1.83 2.345 5.231H13v-9a1 1 0 0 0-1-1H3z" fill="#6f6f6f" opacity=".3" stroke-width="0"/><path d="M22 2v20h-3v-1h2V9.05c-1.423.128-3.445.562-5.253 1.91-.154-.249-.35-.542-.558-.837 2.018-1.488 4.26-1.948 5.811-2.075V3H10V2h12zM4 3h1V2H3v2h1V3zm9 19h1v-1h-1v1zM4 6H3v2h1V6zm0 5H3v1h1v-1zm4-7.978c.017.362.038.7.067 1.024l.996-.09C8.963 2.82 9.013 2.585 9 2H7v1h1v.022zm6.84 11.192a13.605 13.605 0 0 0-.594-1.81l-.088-.21-.914.406.073.173c.246.614.426 1.163.553 1.68l.97-.24zm.307 2.096l-.996.091c.016.165.032.33.053.497.078.593.21 1.112.413 1.631l.932-.365a5.748 5.748 0 0 1-.353-1.394 12.46 12.46 0 0 1-.049-.46zM9.17 8.177l.87-.494c-.284-.498-.503-1.078-.67-1.774l-.973.233c.19.789.443 1.455.773 2.035zm2.076.91l-.639.77c.222.183.447.352.671.52.309.231.617.46.908.732l.681-.73a11.451 11.451 0 0 0-.989-.802c-.211-.158-.424-.317-.632-.49zM16.45 19.97l-.888.457c.134.262.274.55.417.876l.305.696h1.257L17 21s-.405-.749-.55-1.03zM0 13h12v11H0V13zm1 10h10v-9H1v9zm1-1h1v-1H2v1zm0-6h1v-1H2v1zm0 3h1v-1H2v1zm2 2v1h6v-1H4zm0-2h6v-1H4v1zm0-3h6v-1H4v1z" stroke-width="0"/><path stroke-width="0" fill="none" d="M0 0h24v24H0z"/></svg>
